X:1     %Music
T:The Iron Horse
B:Singing Together, Spring 1976, BBC Publications
F:http://www.folkinfo.org/songs
M:2/4     %Meter
L:1/16     %
K:Bb
D2 |G2G2 A2G2 |D2D2 D2C2 |F2F2 F2G2 | A2 c4
w:Come, Hie-land-men, come Low-land-men, come ev-'ry man on earth, man,
 d2 |B2G2 A2F2 |G2G2 D2d2 |d3c B2A2 | G2 G4
w: And I'll tell you how I got on a-tween Dun-dee and Perth, man.
 A2 |B2B2 B2d2 |c2c2 c2d2 |B2G2 F2F2 | A2 c4
w: I gaed up-on an i-ron road, a rail they did it ca' man, 
 (dc) |B2G2 A2F2 |G2D2 D2d2 |d3c B2A2 | G2 G4  |]
w:And_ drag-git by an i-ron horse, an aw-ful beast to draw, man. 